X: 41553
T: Unicorn, The
R: waltz
M: 3/4
K: Eminor
E4 F2|G2>A2 B2|A2<d2 c2|B4 A2|B4 E2|E2>F2 G2|F4 E2|F2>G2 A2|
B4 E2|G4 A2|F4 E2|D2>G2 A2|B2>A2 G2|F2 G2 A2|B2 D2 F2|E4 B2:|
G2>A2 B2|E4 B2|c2>E2 A2|F2>E2 D2|E2>F2 G2|C2>D2 E2|D2 A2 G2|F2>E2 D2|
G2>A2 B2|E4 B2|c2>E2 A2|F2>G2 A2|B2>A2 G2|F2 G2 A2|B2 D2 F2|E4 B2|
E2>E2 E2|B2 E2 d2|E2>E2 E2|d2 E2 B2|A2>B2 G2|F2>E2 F2|D2>F2 A2|B3 A B2|
E2>E2 E2|B2 E2 d2|E2>E2 E2|d2 E2 B2|B2>A2 G2|F2 G2 A2|B2 D2 F2|E4 B2|
|:d4 c2|B2>A2 G2|B2>c2 d2|B2>A2 G2|c4 B2|A2>B2 G2|F2>G2 E2|F2>G2 A2|
B4 E2|E4 D2|C2>D2 E2|G2>A2 B2|d2>c2 B2|c2>E2 A2|D2<G2 F2|1 E4 B2:|2 E6||

